X:1
T:The Birthday of Our King
T:Alonzo Judson Abbey
T:The Birthday of Our King
T:Public Domain
T:Public Domain
C:Alonzo Judson Abbey
Z:Public Domain
%%score ( 1 2 ) ( 3 4 )
L:1/8
M:4/4
K:Bb
V:1 treble 
V:2 treble 
V:3 bass 
V:4 bass 
V:1
 [DF]3 [EG] [DF]2 [CE]2 | [B,D]2 [DF]2 [DF]4 | [FB]3 [^Fc] [GB]2 [EG]2 | F2 [DB]2 [Fc]4 | %4
w: 1.~Hear the mer- ry|Christ- mas bells,|Sound- ing o’er the|hills and dells;|
w: 2.~Lit- tle eyes are|shin- ing bright,|From the heart’s in-|most de- light;|
w: 3.~Youths and maid- ens|gai- ly glide|O’er the snow at|ev- en- tide;|
w: 4.~Old- er hearts re-|joice to- day;|Well they may, yes,|well they may:|
 [Fd]3 [Ge] [Fd]2 [DB]2 | [Fd]2 [Fc]2 [Fc]2 [Fe][Fe] | [Fd]2 [Gc]2 [FB]2 [EA]2 | [DB]6 || %8
w: re- joice, and an-|gels sing, ’Tis the birth-|day of our King.||
w: the an- gels kind-|ly bring Gifts this birth-|day of our King.|Hear|
w: them chant and gai-|ly sing, On the birth-|day of our King.||
w: ery fear doth near-|er bring, The glad com-|ing of their King.||
"^Refrain" (3(FG)A | (z2 DD D)AcB | z EEE E2 (3(GA)B | z2 FF F[FA][FB][Fc] | [Fd]6 (3(FB)[Ec] | %13
w: |||||
w: the * bells,|* * * the mer- ry|* * * * Clear * and|* * * the mu- sic|Let them * ring,|
w: |||||
w: |||||
 [Fd]4- [Fd][Fd][=E^c][Fd] | ([EG]2 [Ge]4) [Fd][Ec] | [DB]2 [DB]2 ([CA][DB]) [Ec]2 | [DB]6 |] %17
w: ||||
w: let * them ring, ’Tis|the * birth- day|of our King. * *||
w: ||||
w: ||||
V:2
 x8 | x8 | x8 | F2 x6 | x8 | x8 | x8 | x6 || x2 | B4 x4 | G4 x4 | c4 x4 | x6 D2 | x8 | x8 | x8 | %16
w: |||Men|||||||||||||
w: |||As||||||bells,|sweet|swells;|oh,||||
w: |||Hear|||||||||||||
w: |||Ev-|||||||||||||
 x6 |] %17
w: |
w: |
w: |
w: |
V:3
 [B,,B,]3 [B,,B,] [B,,B,]2 [B,,F,]2 | [B,,F,]2 [B,,B,]2 [B,,B,]4 | [D,B,]3 [D,B,] [E,B,]2 [E,B,]2 | %3
w: ~ ~ ~ ~|~ ~ ~|~ ~ ~ ~|
 [D,B,]2 [G,B,]2 [F,A,]4 | [B,,B,]3 [B,,B,] [B,,B,]2 [B,,B,]2 | %5
w: ~ ~ ~|~ ~ ~ ~|
 [F,B,]2 [F,A,]2 [F,A,]2 [F,A,][F,A,] | B,2 [E,E]2 [F,D]2 [F,C]2 | [B,,B,]6 || z2 | %9
w: ~ ~ ~ ~ ~|~ ~ ~ ~|Hear||
 z2 [B,,B,][B,,B,] [B,,B,] z3 | z [E,B,][E,B,][E,B,] [E,B,]2 z2 | %11
w: the bells, the|mer- ry bells, Clear|
 z2 [F,A,][F,A,] [F,A,][E,C][D,B,][C,A,] | z B,,D,F, B,2 z2 | z2 [B,,B,][B,,B,] [B,,B,]2 z2 | %14
w: and sweet the mu- sic swell,|the mu- sic swells;|them ring, Let|
 z2 [E,B,][E,B,] [E,B,]2 [E,G,][E,G,] | F,2 F,2 [F,,F,]2 [F,,F,]2 | [B,,F,]6 |] %17
w: them ring * * *|||
V:4
 x8 | x8 | x8 | x8 | x8 | x8 | B,2 x6 | x6 || x2 | x8 | x8 | x8 | [B,,B,]6 x2 | x8 | x8 | %15
w: ||||||~||||||Let|||
 F,2 F,2 x4 | x6 |] %17
w: ||

